**kern	**kern	**dynam
*part1	*part1	*part1
*staff2	*staff1	*
*I"Piano	*	*
*clefF4	*clefF4	*
*k[b-e-]	*k[b-e-]	*
=1	=1	=1
*	*^	*
4FFF	(8B-L	4F 4e-	.
.	16AL	.	.
.	16GJJ	.	.
*	*v	*v	*
*	*clefG2	*
8FF	8A) 8e- 8f	.
=	=	=
*	*^	*
4BBB-	4B- 4f	(8e-L	.
.	.	8d	.
8BB-	8B- 8f 8g	8d-XJ)	.
=	=	=	=
!	!	!	!LO:DY:a
4CC	4c 4g	(8fL	>
.	.	16enL	.
.	.	16dJ	.
8C	8c 8g	8eJ)	.
*	*v	*v	*
=	=	=
!	!	!LO:DY:a
4CC	(4c 4f 4a	] p p
8C	8c 8g 8cc	.
=	=	=
4CC	4f 4a 4ff	.
8C	8c) 8g 8cc	.
=	=	=
4CC	(4c 4f 4a	.
8C	8c 8g	.
=	=	=
4CC	4A 4f	>
*	*clefF4	*
8C	8G 8c	.
=	=	=
4CC	4F 4A	.
8C	8C) 8G	.
=	=	=
*-	*-	*-
!!!system-decoration: {(s1,s2)}
